X: 1187
T: Kahve Yemen`den Gelir
C: (Anonim)
O: Turkey
F: http://compmusic.upf.edu/node/140
N: nikriz--turku--sofyan--kahve_yemenden--
N: makam= nikriz
N: form= turku
N: usul= sofyan = 4/4
M: 4/4
L: 1/16
K: C _7/8B ^3/4f ^c 
Q: 1/4=102
%%MIDI tuningsystem comma53
z12 e2e2  | d=cde d2c2 _1/4B4 d2d2  | \
w:   |   | 
=c_1/4Bcd c2B2 A4 c2c2  | 
w:   | 
_1/4BAB=c B2A2 G4 d3d  | d2d2 d2e2 =f2e2 d2c2  | \
w:   |   | 
d2c2 B2A2 B3A G3^F  | 
w:   | 
G4 GA_2/4Bc ABcd e2e2  | d=cde d2c2 _1/4B4 d2d2  | \
w:   |   | 
=c_1/4Bcd c2B2 A4 c2c2  | 
w:   | 
_1/4BAB=c B2A2 G4 d3d  | d2d2 d2e2 =f2e2 d2c2  | \
w:   |   | 
d2c2 B2A2 B3A G3^F  | 
w:   | 
G4 GA_2/4Bc ABcd .e2.e2  | .D2.G2 .D2.G2 D2G2 G2G2  | \
w:   |  *  *  *  *  Kah ve  Ye men  | 
=c4 c4 _1/4B4 Bc^cd  | 
w:  den  ge lir   SAZ  | 
d4 d2c2 B2A2 G4  | B3A G2^F2 G4 GABc  | \
w:  Bül bül  *  çe *  men  |  den  ge lir_ a man   SAZ  | 
d4 d2c2 B2A2 G4  | 
w:  Bül bül  *  çe *  men  | 
B3A G2^F2 G4 GFA/G/F/E/  | .D2.G2 .D2.G2 D2G2 G2G2  | \
w:  den  ge lir_ a man   SAZ  |  *  *  *  *  Kah ve  Ye men  | 
=c4 c4 _1/4B4 Bc^cd  | 
w:  den  ge lir   SAZ  | 
d4 d2c2 B2A2 G4  | B3A G2^F2 G4 GABc  | \
w:  Bül bül  *  çe *  men  |  den  ge lir_ a man   SAZ  | 
d4 d2c2 B2A2 G4  | 
w:  Bül bül  *  çe *  men  | 
B3A G2^F2 G4 e2e2  | d=cde d2c2 _1/4B4 d2d2  | \
w:  den  ge lir_ a man   A  ca  |  nım  *  *  *  *  *  *  sür me  | 
=c_1/4Bcd c2B2 A4 c2c2  | 
w:  lim  *  *  *  *  *  *  pa la  | 
_1/4BAB=c B2A2 G4 d3d  | d2d2 d2e2 =f2e2 d2c2  | \
w:  zım  *  *  *  *  *  *  kek li  |  ğim  de  ye şi lim_ a man_ a  | 
d2c2 B2A2 B3A G3^F  | 
w:  man_ a man_ a man   *  *  a  | 
G4 GA_2/4Bc ABcd e2e2  | d=cde d2c2 _1/4B4 d2d2  | \
w:  man   SAZ *  *  *  *  *  *  *  A  ca  |  nım  *  *  *  *  *  *  sür me  | 
=c_1/4Bcd c2B2 A4 c2c2  | 
w:  lim  *  *  *  *  *  *  pa la  | 
_1/4BAB=c B2A2 G4 d3d  | d2d2 d2e2 =f2e2 d2c2  | \
w:  zım  *  *  *  *  *  *  kek li  |  ğim  de  ye şi lim_ a man_ a  | 
d2c2 B2A2 B3A G3^F  | 
w:  man_ a man_ a man   *  *  a  | 
G4 GA_2/4Bc ABcd .e2.e2  | d=cde d2c2 _1/4B4 d2d2  | \
w:  man   SAZ *  *  *  *  *  *  *  SAZ  |   | 
=c_1/4Bcd c2B2 A4 c2c2  | 
w:   | 
_1/4BAB=c B2A2 G4 d3d  | d2d2 d2e2 =f2e2 d2c2  | \
w:   |   | 
d2c2 B2A2 B3A G3^F  | 
w:   | 
G4 GA_2/4Bc ABcd e2e2  | d=cde d2c2 _1/4B4 d2d2  | \
w:   |   | 
=c_1/4Bcd c2B2 A4 c2c2  | 
w:   | 
_1/4BAB=c B2A2 G4 d3d  | d2d2 d2e2 =f2e2 d2c2  | \
w:   |   | 
d2c2 B2A2 B3A G3^F  | 
w:   | 
G4 GA_2/4Bc ABcd .e2.e2  | .D2.G2 .D2.G2 D2G2 G2G2  | \
w:   |  *  *  *  *  Kah ve  Ye men  | 
=c4 c4 _1/4B4 Bc^cd  | 
w:  den  ge lir   SAZ  | 
d4 d2c2 B2A2 G4  | B3A G2^F2 G4 GABc  | \
w:  Bül bül  *  çe *  men  |  den  ge lir_ a man   SAZ  | 
d4 d2c2 B2A2 G4  | 
w:  Bül bül  *  çe *  men  | 
B3A G2^F2 G4 GFA/G/F/E/  | .D2.G2 .D2.G2 D2G2 G2G2  | \
w:  den  ge lir_ a man   SAZ  |  *  *  *  *  Kah ve  Ye men  | 
=c4 c4 _1/4B4 Bc^cd  | 
w:  den  ge lir   SAZ  | 
d4 d2c2 B2A2 G4  | B3A G2^F2 G4 GABc  | \
w:  Bül bül  *  çe *  men  |  den  ge lir_ a man   SAZ  | 
d4 d2c2 B2A2 G4  | 
w:  Bül bül  *  çe *  men  | 
B3A G2^F2 G4 e2e2  | d=cde d2c2 _1/4B4 d2d2  | \
w:  den  ge lir_ a man   A  ca  |  nım  *  *  *  *  *  *  sür me  | 
=c_1/4Bcd c2B2 A4 c2c2  | 
w:  lim  *  *  *  *  *  *  pa la  | 
_1/4BAB=c B2A2 G4 d3d  | d2d2 d2e2 =f2e2 d2c2  | \
w:  zım  *  *  *  *  *  *  kek li  |  ğim  de  ye şi lim_ a man_ a  | 
d2c2 B2A2 B3A G3^F  | 
w:  man_ a man_ a man   *  *  a  | 
G4 GA_2/4Bc ABcd e2e2  | d=cde d2c2 _1/4B4 d2d2  | \
w:  man   SAZ *  *  *  *  *  *  *  A  ca  |  nım  *  *  *  *  *  *  sür me  | 
=c_1/4Bcd c2B2 A4 c2c2  | 
w:  lim  *  *  *  *  *  *  pa la  | 
_1/4BAB=c B2A2 G4 d3d  | d2d2 d2e2 =f2e2 d2c2  | \
w:  zım  *  *  *  *  *  *  kek li  |  ğim  de  ye şi lim_ a man_ a  | 
d2c2 B2A2 B3A G3^F  | 
w:  man_ a man_ a man   *  *  a  | 
G8 z8  | |


